X: 13528
T: Flowers Of Spring, The
R: hornpipe
M: 4/4
K: Dmajor
|:dB|A2 FA DFA,2|(3DED FA dfab|af (3def gfec|dcBA GBEB|
(3ABA (3FAF (3DFD A,2|(3DED FA dfab|afdA CEAG|F2D2D2:|
|:(3EFG|Ad ~d2 fd ~d2|ba^ga fdcB|(3ABA FA dFFA|(3GFE (3FED CEA,2|
Ad~d2 fd~d2|ba^ga fdcB|(3ABA (3FED CEAG|F2D2D2:|

